X:214
%%etbk:tnset id:158,pos:3,rep:3x,ant:
%%etbk:pldat 2016-09-15T18:38,2016-09-11T15:32,2016-07-09T13:58,2016-07-07T15:19,2015-12-15T17:06,2014-12-29T17:15,2014-12-18T18:38,2014-04-30T15:35,2014-04-09T17:15,2014-04-08T17:12,2014-03-26T16:58,2014-03-25T17:33,2013-11-19T16:42,2013-11-16T15:25,2013-11-13T16:33,2013-05-14T18:40,2013-05-02T18:02
T:Thady Casey's
T:Pat Mahon's
H: Created 2013-02-19 /  Modified 2014-03-26
R:Reel
M:4/4
L:1/8
K: Edor
|: "em"!3!B2BA !3!Bd !5!ed | !3!B2A!4!d !3!BE-EE| !3!B!2!A!1!G!2!A !3!B!4!d !3!e!4!f |1 !5!gfe!2!d !1!Bd !3!ed:|2 !5!gfe!2!d !1!B!2!def||
|: "G"!5!g2g!3!e !2!d!1!BB{e}B| !2!d!4!gg{a}g !1!B!2!d!3!e!4!f | !5!g2!3!ga !5!bga!2!f|1 !5!gfed !1!Bdef:|2 !5!gfed !1!Bded||


